X:58
T:a Scotch Reel
O:england
R:Reel
M:C|
A:Westmorland
N:P7(?) 2/2
K:D
e|cAee cAef|gedB g2B2|\
cAee cA ef/2g/2|aeec a2e2::\
f/2g/2|aeec aeef|gedB g2 Bf/2g/2|\
aeec ae ef/2g/2|geec a2e2|\
afge fdec|B/2B/2B fB d2f2|\
A/2A/2A cA BGGB|A/2A/2A ag a2 A2|]


